!!!COM: Joplin, Scott
!!!CDT: 1868/11/24-1917/04/01
!!!OTL: Search-Light Rag
!!!AGN: Rag
!!!ODT: 1907
**kern	**kern	**dynam
*staff2	*staff1	*staff1/2
*Ipiano	*Ipiano	*Ipiano
*>[I,A,A1,A,A2,B,B1,B,B2,C,D,D1,D,D2,E,E1,E,E2]	*>[I,A,A1,A,A2,B,B1,B,B2,C,D,D1,D,D2,E,E1,E,E2]	*>[I,A,A1,A,A2,B,B1,B,B2,C,D,D1,D,D2,E,E1,E,E2]
*>I	*>I	*>I
*clefF4	*clefG2	*clefG2
*k[b-e-]	*k[b-e-]	*k[b-e-]
*M2/4	*M2/4	*M2/4
*MM90	*MM90	*MM90
=1-	=1-	=1-
8B-L	8b-L	mf
[8GJ	[8gJ	.
16GLL]	16gLL]	.
16DJ	16dJ	.
8GJ	8gJ	.
=2	=2	=2
8FL	8fL	.
[8DJ	[8dJ	.
16DLL]	16dLL]	.
16BB-J	16B-J	.
8DJ	8dJ	.
=3	=3	=3
8CL	8cL	.
[8BB-J	[8B-J	.
(16BB-LL]	(>16B-LL]	.
16D	16d	.
16F	16f	.
16dJJ)	16ddJJ)	.
=4	=4	=4
8c	8cc	.
8r	8r	.
8F^ FF	8ff^ cc a f	.
!!LO:LB:g=original
=5!|:	=5!|:	=5!|:
*>A	*>A	*>A
*	*^	*
8B-L BB-	8.ddL	2b- f	mf
8dJ B- F	.	.	.
.	16ccJk	.	.
8GL GG	(16b-LL	.	.
.	16cc	.	.
8FJ FF	16dd	.	.
.	16ee-JJ)	.	.
=6	=6	=6	=6
8DL DD	16ffLK	4b-	.
.	8gg	.	.
8dJ B- F	.	.	.
.	16ddJk	.	.
8BB-L	8ffL	8ddL	.
8dJ B- A-	(16dddL	8ffJ	.
.	16cccJJ)	.	.
*	*v	*v	*
=7	=7	=7
8E-L EE-	(8.bb-L gg	.
8e-J B- G	.	.
.	16aaJk ff)	.
8GL GG	16ggLK ee-	.
.	8ee- cc	.
8G-J GG-	.	.
.	[16ddJk [b-	.
=8	=8	=8
(8FL FF	(4dd] b-]	.
8B-J BB-	.	.
8AL< AA	4ee- cc)	.
8FJ FF)	.	.
!!LO:LB:g=original
=9	=9	=9
*	*^	*
8B-L BB-	8.ddL	2b-	.
8dJ B- F	.	.	.
.	16ccJk	.	.
8GL GG	(16b-LL	.	.
.	16cc	.	.
8FJ FF	16dd	.	.
.	16ee-JJ)	.	.
=10	=10	=10	=10
8DL DD	16ffLK	[4b-	.
.	8gg	.	.
8fJ d B-	.	.	.
.	16ddJk	.	.
8D-L DD-	8ffL	8b-L]	.
8fJ d- B-	(16ffL	8b-J	.
.	16ggJJ)	.	.
=11	=11	=11	=11
8CL CC	(8.aaL	4cc	.
8fJ c A	.	.	.
.	16cccJk)	.	.
8CL	(16ccLK	16ccLK	.
.	8gg)	8b-	.
8enJ c B-	.	.	.
.	[16ffJk	16aJk	.
=12	=12	=12	=12
8fL c A F	8ffL]	(2a	>
(8FJ FF	(16ggL	.	.
.	16ffJJ	.	.
8GL GG	16ee-LL	.	.
.	16dd	.	.
8AJ AA)	16cc	.	.
.	16ffJJ)	.	]
!!LO:LB:g=original
=13	=13	=13	=13
8B-L BB-	8.ddL	2f)	mf
8dJ B- F	.	.	.
.	16ccJk	.	.
8GL GG	(16b-LL	.	.
.	16cc	.	.
8FJ FF	16dd	.	.
.	16ee-JJ)	.	.
=14	=14	=14	=14
8DL DD	16ffLK	4b-	.
.	8gg	.	.
8dJ B- F	.	.	.
.	16ddJk	.	.
8BB-L	8ffL	4dd	.
8dJ B- F	(16eenL	.	.
.	16ffJJ)	.	.
=15	=15	=15	=15
8AL AA	(8.ff#L	4dd	<
8dJ c F#	.	.	.
.	16aaJk)	.	.
8DL DD	16eee-LK	4ff#	.
.	8ddd	.	.
8dJ c F#	.	.	.
.	16cccJk	.	[
*	*v	*v	*
=16	=16	=16
8dL B- G	4.bb- gg	f
(>16B-L BB-	.	.
16AJJ AA	.	.
16GLL GG	.	.
16G-J GG-	.	.
8FJ FF)	8aa- dd	.
!!LO:LB:g=original
=17	=17	=17
8E-L EE-	(8.ggL ee-	.
8e-J B- G	.	.
.	16ffJk dd)	.
8GL GG	(16ee-LL cc	.
.	16dd	.
8G-J GG-	16ee-	.
.	16bb-JJ)	.
=18	=18	=18
*	*^	*
*	*	*^	*
8FL FF	8.bb-L dd	4ryy	[<2b-\	.
8dJ B- F	.	.	.	.
.	16eenJk	.	.	.
8dL B- F	(16ffLL dd	16ddLL	.	.
.	16ee	16ee	.	.
(16dL D	16ff	16ff	.	.
16d-JJ D-)	16gg-JJ ff-)	16ff-JJ	.	.
*	*v	*v	*	*
=19	=19	=19	=19
8cL C	16ggnLK ee-	4b-]	>
.	8bb-	.	.
8e-J c G	.	.	.
.	16ee-Jk	.	.
4F FF	(>16ee-LL a g	4ryy	.
.	16ddJ a f	.	.
.	8ccJ a e-)	.	]
*	*v	*v	*
=20	=20	=20
*>A1	*>A1	*>A1
8B-L< BB-	4.b- f d	mf
(16FL FF	.	.
16EnJJ EEn	.	.
16FLL< FF	.	.
16F# FF#	.	.
16G GG	8ee- cc f	.
16AJJ AA)	.	.
=21:|!	=21:|!	=21:|!
*>A2	*>A2	*>A2
8B- BB-	8b-L f d	.
8r	16ff^^L	.
.	16ff^^JJ	.
4r	8ff^^L	.
.	8ff^^J	.
!!LO:LB:g=original
=22	=22	=22
*>B	*>B	*>B
*k[b-e-]	*k[b-e-]	*k[b-e-]
!	!	!LO:DY:t=%s legato
8FL FF	(16ffLL	f
.	16a	.
8GJ GG	16ee-)	.
.	[16ffJJ	.
8AL AA	(16ffLL]	.
.	16ee-J	.
8B-J BB-	8gJ)	.
=23	=23	=23
8cL C	(16ee-LL<	.
.	16g	.
8BnJ BBn	16g#	.
.	[16aJJ)	.
8cL C	(16aLL]	.
.	16ee-J	.
8c#J C	8gnJ)	.
=24	=24	=24
8dL D	(16fLL<	.
.	16b-	.
8dJ B- F	16dd	.
.	[16ffJJ dd b- [f)	.
(16B-LL BB-	4ff_ [dd [b- f_	.
16c C	.	.
16d D	.	.
16cJJ C)	.	.
!!LO:LB:g=original
=25	=25	=25
8B-L BB-	8ff]L dd] b-] f]	.
8dJ B- F	(>16ddL	.
.	16ccJJ	.
8dL B- F	16b-LL	.
.	16a	.
8BnJ BBn	16g	.
.	16g-JJ)	.
=26	=26	=26
8cL C	(16fLL<	.
.	16a	.
8e-J A F	16cc	.
.	[16ffJJ [cc [a [f)	.
(16ALL AA	4ff_ cc_ a_ f_	.
16B- BB-	.	.
16c C	.	.
16B-JJ BB-)	.	.
=27	=27	=27
8AL AA	8ff]L cc] a] f]	.
8fJ e- A	(16ccL	.
.	16b-JJ	.
8fL F	16aLL	.
.	16a-	.
8e-J E-	16g	.
.	16g-JJ)	.
!!LO:LB:g=original
=28	=28	=28
8dL D	(16fLL<	.
.	16b-	.
8dJ B- F	16dd	.
.	[16ffJJ [dd [b- [f	.
(16B-LL BB-	4ff_ dd_ b-_ f_)	.
16c C	.	.
16d D	.	.
16B-JJ BB-)	.	.
=29	=29	=29
8F FF	8ff]L dd] b-] f]	.
8r	16ffL	.
.	16ffJJ	.
4r	8ffL	.
.	8ffJ	.
=30	=30	=30
8FL FF	(16ffLL	.
.	16a	.
8GJ GG	16ee-	.
.	[16ffJJ)	.
8AL AA	(16ffLL]	.
.	16ee-J	.
8B-J BB-	8gJ)	.
=31	=31	=31
8c CL	(16ee-LL<	.
.	16g	.
8Bn 8BBnJ	16g#	.
.	[16aJJ)	.
8cL C	(16aLL]	.
.	16ee-J	.
8c#J C	8gnJ)	.
!!LO:LB:g=original
=32	=32	=32
8dL D	(16fLL<	.
.	16b-	.
8dJ B- F	16dd	.
.	[16ffJJ [dd [b- [f)	.
16B-LL BB-	4ff_ dd_ b-_ f_	.
16c C	.	.
16d D	.	.
16cJJ C	.	.
=33	=33	=33
8B-L BB-	8ff]L dd] b-] f]	.
8dJ B- F	(16ddL	<
.	16ee-JJ)	.
8B-L BB-	8ffL dd b- f	.
8AJ AA	8ff#J dd cc f#	[
=34	=34	=34
*	*^	*
8GL GG	(8.ggL	2dd bn g	ff
8fJ Bn G	.	.	.
.	16aa-Jk)	.	.
8BL BBn	16aa-LL	.	.
.	16gg	.	.
8fJ B G	16gg	.	.
.	16ffJJ	.	.
=35	=35	=35	=35
(16CLL	(8ffL	4cc g	.
16G	.	.	.
16c	8ee-J	.	.
16e-JJ	.	.	.
4en)	4cc#)	4b- g	.
!!LO:LB:g=original
=36	=36	=36	=36
*	*v	*v	*
*>B1	*>B1	*>B1
*	*^	*
(>8fL	(16ddLL	4b-	f
.	16ee-	.	.
8dJ	16ff	.	.
.	16ggJJ)	.	.
8FL>)	16ddLK a f	4ryy	.
.	8cc a e-	.	.
8FJ FF	.	.	.
.	[16b-Jk [<d	.	.
*	*v	*v	*
=37	=37	=37
8B- BB-	8b-L] d]	.
8r	16ffL	.
.	16ffJJ	.
4r	8ffL	.
.	8ffJ	.
=38:|!	=38:|!	=38:|!
*>B2	*>B2	*>B2
*	*^	*
(>8fL	(16ddLL	4b-	.
.	16ee-	.	.
8dJ	16ff	.	.
.	16ggJJ)	.	.
8FL>)	16ddLK a f	4ryy	.
.	8cc a e-	.	.
8FJ FF	.	.	.
.	[16b-Jk [d	.	.
*	*v	*v	*
=39	=39	=39
8B-L< BB-	4.b-] d]	>
(16FL FF	.	.
16EnJJ EEn	.	.
16FLL< FF	.	.
16F# FF#	.	.
16G GG	8ee- cc f	]
16AJJ AA)	.	.
!!LO:LB:g=original
=40	=40	=40
*>C	*>C	*>C
*	*^	*
8B-L BB-	8.ddL	2b- f	mf
8dJ B- F	.	.	.
.	(16ccJk	.	.
8GL GG	16b-LL	.	.
.	16cc	.	.
8FJ FF	16dd	.	.
.	16ee-JJ)	.	.
=41	=41	=41	=41
8DL DD	16ffLK	4b-	.
.	8gg	.	.
8dJ B- F	.	.	.
.	16ddJk	.	.
8BB-L	(8ffL	8ddL	.
8dJ B- A-	16dddL	8ffJ	.
.	16cccJJ)	.	.
*	*v	*v	*
=42	=42	=42
8E-L EE-	8.bb-L gg	.
8e-J B- G	.	.
.	16aaJk ff	.
8GL GG	16ggLK ee-	.
.	8ee- cc	.
8G-J GG-	.	.
.	[16ddJk [b-	.
=43	=43	=43
(8FL FF	(4dd] b-]	.
8B-J BB-	.	.
8AL< AA	4ee- cc)	.
8FJ FF)	.	.
!!LO:LB:g=original
=44	=44	=44
*	*^	*
8B-L BB-	8.ddL	2b-	.
8dJ B- F	.	.	.
.	(16ccJk	.	.
8GL GG	16b-LL	.	.
.	16cc	.	.
8FJ FF	16dd	.	.
.	16ee-JJ)	.	.
=45	=45	=45	=45
8DL DD	16ffLK	[4b-	.
.	8gg	.	.
8fJ d B-	.	.	<
.	16ddJk	.	.
8D-L DD-	8ffL	8b-L]	.
8fJ d- B-	(16ffL	8b-J	.
.	16ggJJ)	.	[
=46	=46	=46	=46
8CL CC	(8.aaL	4cc	.
8fJ c A	.	.	.
.	16cccJk	.	.
8CL	16ccLK)	16ccLK	.
.	8gg	8b-	.
8enJ c B-	.	.	.
.	[16ffJk	[16aJk	.
=47	=47	=47	=47
8fL c A F	8ffL]	(2a]	.
8FJ FF	(16ggL	.	>
.	16ffJJ	.	.
8GL GG	16ee-LL	.	.
.	16dd	.	.
8AJ AA	16cc	.	.
.	16ffJJ)	.	]
!!LO:LB:g=original
=48	=48	=48	=48
8B-L BB-	8.ddL	2f)	mf
8dJ B- F	.	.	.
.	(16ccJk	.	.
8GL GG	16b-LL	.	.
.	16cc	.	.
8FJ FF	16dd	.	.
.	16ee-JJ)	.	.
=49	=49	=49	=49
8DL DD	16ffLK	4b-	.
.	8gg	.	.
8dJ B- F	.	.	.
.	16ddJk	.	.
8BB-L	8ffL	4dd	.
8dJ B- F	16eenL	.	.
.	16ffJJ	.	.
=50	=50	=50	=50
8AL AA	8.ff#L	4dd	<
8dJ c F#	.	.	.
.	16aaJk	.	.
8DL DD	16eee-XLK	4ff#	.
.	8ddd	.	.
8dJ c F#	.	.	.
.	16cccJk	.	[
*	*v	*v	*
=51	=51	=51
8dL B- G	4.bb- gg	f
(>16B-L BB-	.	.
16AJJ AA	.	.
16GLL GG	.	.
16G-J GG-	.	.
8FJ FF)	8aa- dd	.
!!LO:LB:g=original
=52	=52	=52
8E-L EE-	8.ggL ee-	.
8e-J B- G	.	.
.	16ffJk dd	.
8GL GG	(16ee-LL cc	.
.	16dd	.
8G-J GG-	16ee-	.
.	16bb-JJ)	.
=53	=53	=53
*	*^	*
*	*^	*	*
8FL FF	8.bb-L dd	4ryy	[<2b-\	.
8dJ B- F	.	.	.	.
.	16eenJk	.	.	.
8dL B- F	16ffLL dd	16ddLL	.	.
.	16ee	16ee	.	.
16dL D	16ff	16ff	.	.
16d-JJ D-	16gg-JJ ff-	16ff-JJ	.	.
*	*v	*v	*	*
=54	=54	=54	=54
8cL C	(16ggnLK ee-X	4b-]	.
.	8bb-	.	.
8e-J c G	.	.	.
.	16ee-Jk)	.	.
4F FF	(>16ee-LL a g	4ryy	.
.	16ddJ a f	.	.
.	8ccJ a e-)	.	.
*	*v	*v	*
=55	=55	=55
8B-L BB-	[4b- [d	>
8A-J AA-	.	.
8GL GG	8b-]L d]	]
8FJ FF	8bb-J aa- dd	.
!!LO:LB:g=original
=56!|:	=56!|:	=56!|:
*>D	*>D	*>D
*k[b-e-a-]	*k[b-e-a-]	*k[b-e-a-]
!	!	!LO:DY:t=%s legato
8E-L EE-	16r	mp
.	16eee-LL gg ee-	.
8e-J B- G	16ddd gg dd	.
.	[16cccJJ [gg [cc	.
8GL GG	16ccc]LL gg] cc]	.
.	16bb- b-	.
8G-J GG-	16ccc cc	.
.	16ccc#JJ cc#	.
=57	=57	=57
8FL FF	8dddL aa- dd	.
8dJ B- A-	16ccc#L cc#	.
.	[16dddJJ [aa- [dd	.
(16BB-LL	4ddd] aa-] dd]	.
16D	.	.
16F	.	.
16B-JJ)	.	.
=58	=58	=58
8FL FF	16r	.
.	16dddLL aa- dd	.
8dJ B- A-	16ddd- aa- dd-	.
.	[16cccJJ [<aa- [cc	.
8BB-L< BBB-	16ccc]LL aa-] cc]	.
.	(16ff f	.
8dJ B- A-	16gg g	.
.	16aa-JJ a-)	.
=59	=59	=59
16r	(4aan ff# ee- an	.
(16CLL	.	.
16E-	.	.
16F#JJ	.	.
16GLL	4bb- gg ee- b-)	.
16E-J	.	.
8BB-J)	.	.
!!LO:LB:g=original
=60	=60	=60
8E-L EE-	16r	.
.	16eee-LL gg ee-	.
8e-J B- G	16ddd gg dd	.
.	[16cccJJ [<gg [cc	.
8E-L EE-	16ccc]LL gg] cc]	.
.	(16bb- b-	.
8e-J B- G	16ccc cc	.
.	16ccc#JJ cc#)	.
=61	=61	=61
8DL DD	8dddL bb- gg dd	<
8dJ B- G	16ccc#L cc#	.
.	[16dddJJ [bb- [gg [dd	.
(16DLL	4ddd] bb-] gg] dd]	.
16G	.	[
16B-	.	.
16dJJ)	.	.
=62	=62	=62
8DL DD	16r	.
.	16dddLL dd	<
8dJ c F#	16eee- ee-	.
.	[16dddJJ [aan [ff# [dd	.
8DL DD	16ddd]LL aa] ff#] dd]	.
.	16ccc#J cc#	.
8dJ c F#	8dddJ aa ff# dd	[
=63	=63	=63
8GL GG	8dddL bb- gg dd	f
8F#J FF#	8dddJ aan dd	.
8FnL FFn	4ddd bb- aa- dd	>
8BB-J BBB-	.	]]
!!LO:LB:g=original
=64	=64	=64
8E-L EE-	16r	mp
.	16eee-LL gg ee-	.
8e-J B- G	16ddd gg dd	.
.	[16cccJJ [<gg [cc	.
8GL GG	16ccc]LL gg] cc]	.
.	(16bb- b-	.
8G-J GG-	16ccc cc	.
.	16ccc#JJ cc#)	.
=65	=65	=65
8FL FF	8dddL aa- dd	.
8dJ B- A-	16ccc#L cc#	.
.	[16dddJJ [aa- [dd	.
(16BB-LL	4ddd] aa-] dd]	.
16D	.	.
16F	.	.
16B-JJ)	.	.
=66	=66	=66
(8BnL	16r	.
.	16bbnLL gg	<
8GJ	16ddd dd	.
.	16ggJJ	.
8AnL	16bbLK	.
.	8ddd dd	.
8BJ)	.	.
.	[16eee-Jk [ccc [gg [ee-	[
=67	=67	=67
(16cLL	4eee-_ ccc_ gg_ ee-_	.
16F#	.	.
16G	.	.
16E-JJ	.	.
8CL)	8eee-]L ccc] gg] ee-]	.
8B-XJ BB-X	8ddd-J gg ee-	.
=68	=68	=68
*	*^	*
8A-L AA-	8cccL aa-	4ee-	.
8e-J c A-	(16bb-L	.	.
.	16aa-JJ)	.	.
(8cL C	16ee-LK	8.ee-L	.
.	8aa-	.	.
8c-J C-)	.	.	.
.	[16ggJk	[16ee-Jk	.
!!LO:LB:g=original
=69	=69	=69	=69
8B-L BB-	(16ggLL]	4ee-]	<
.	16aa-	.	.
8e-J B- G	16aan	.	.
.	16bb-JJ)	.	[
8An^^<L AAn	4ryy	8ccc^^L ff# ee-	.
8F#^^<J FF#	.	8aan^^J ee- cc	.
=70	=70	=70	=70
*	*v	*v	*
*>D1	*>D1	*>D1
*^	*^	*
8GL	4G GG	(16bb-LL	4ee- b-	f
.	.	16gg	.	.
8e-J B- G	.	16ff	.	.
.	.	16ee-JJ)	.	.
*v	*v	*	*	*
8BB-L<	4ryy	16ffLK dd	.
.	.	8bb- dd b-	.
8dJ B- A-	.	.	.
.	.	[16ee-Jk [b- [g	.
*	*v	*v	*
=71	=71	=71
8e-L E-	4ee-_ b-_ g_	.
8B-J BB-	.	.
8GL GG	8ee-]L b-] g]	.
8FJ FF	8bb-J aa- dd	.
=72:|!	=72:|!	=72:|!
*>D2	*>D2	*>D2
*^	*^	*
8GL	4G GG	(16bb-LL	4ee- b-	f
.	.	16gg	.	.
8e-J B- G	.	16ff	.	.
.	.	16ee-JJ)	.	.
*v	*v	*	*	*
8BB-L<	4ryy	16ffLK dd	.
.	.	8bb- dd b-	.
8dJ B- A-	.	.	.
.	.	[16ee-Jk [b- [g	.
*	*v	*v	*
=73	=73	=73
8E-L EE-	4ee-_ b-_ g_	.
8GJ GG	.	.
8B-L BB-	8ee-]L b-] g]	>
(16GL GG	(16b-L	.
16G-JJ GG-)	16bnJJ)	]]
!!LO:LB:g=original
=74!|:	=74!|:	=74!|:
*>E	*>E	*>E
!	!	!LO:DY:t=%s legato
8FL FF	(16ccLK	mp
.	8bb- aa- dd	.
8dJ B- A-	.	.
.	16ccJk	.
8BB-L< BBB-	8bb-L aa- dd	.
8dJ B- A-	16ccL)	.
.	[16bb-JJ [<aa- [dd	.
=75	=75	=75
8FL FF	16bb-]LL aa-] dd]	.
.	(16cc	.
8dJ B- A-	16bb- aa- dd	.
.	16cccJJ	.
8BB-L< BBB-	16bb-LL	.
.	16aa-	.
8dJ B- A-	16ff	.
.	16ddJJ)	.
=76	=76	=76
8E-L EE-	(16ccLK	.
.	8bb- gg ee-	.
8e-J B- G	.	.
.	16ccJk	.
8BB-L BBB-	8bb-L gg ee-	.
8e-J B- G	16ccL)	.
.	[16bb-JJ [gg [ee-	.
=77	=77	=77
8E-L EE-	16bb-]LL gg] ee-]	.
.	(16cc	.
8e-J B- G	16bb- gg ee-	.
.	16cccJJ	.
8BB-L BBB-	16bb-LL)	.
.	(16gg	.
8e-J B- G	16bb-	.
.	16eee-JJ)	.
!!LO:LB:g=original
=78	=78	=78
8AA-L< AAA-	16fffLL ff	<
.	16aa-	.
8fJ e- c A-	16ccc	.
.	[16eee-JJ [ee-	.
8AAnL< AAAn	16eee-]LL ee-]	.
.	16dddJ dd	[
8f#J e- c An	8cccJ cc	.
=79	=79	=79
*	*^	*
8BB-L BBB-	4ryy	(16cccLL cc	<
.	.	16ee-	.
8gJ e- B-	.	16gg)	.
.	.	[16bb-JJ [een [b-	.
8CL CC	(16bb-LL]	4ee] b-]	.
.	16aa-J	.	.
8enJ c B-	8ggJ)	.	[
=80	=80	=80	=80
8FL FF	(16ggLL ee-X	8.anL	f
.	16cc	.	.
8e-XJ c An F	16ee-	.	.
.	[16ggJJ [<ee-)	[16aJk	.
8FFL< FFF	(16gg]LL ee-]	4a]	.
.	16cc	.	.
8e-J c A F	16dd	.	.
.	16ee-JJ)	.	.
*	*v	*v	*
=81	=81	=81
8BB-L BBB-	[4ff [dd [a-X	.
16DL DD	.	.
16FJJ FF	.	.
8B-L BB-	8ff]L dd] a-]	.
(16GL GG	(16b-L	>
16G-JJ GG-)	16bnJJ)	]]
!!LO:LB:g=original
=82	=82	=82
8FL FF	(16ccLK	mp
.	8bb- aa- dd	.
8dJ B- A-	.	.
.	16ccJk	.
8BB-L< BBB-	8bb-L aa- dd	.
8dJ B- A-	16ccL)	.
.	[16bb-JJ [<aa- [dd	.
=83	=83	=83
8FL FF	16bb-]LL aa-] dd]	.
.	(16cc	.
8dJ B- A-	16bb- aa- dd	.
.	16cccJJ	.
8BB-L< BBB-	16bb-LL	.
.	16aa-	.
8dJ B- A-	16ff	.
.	16ddJJ)	.
=84	=84	=84
8E-L EE-	(16ccLK	.
.	8bb- gg ee-	.
8e-J B- G	.	.
.	16ccJk	.
8BB-L BBB-	8bb-L gg ee-	.
8e-J B- G	16ccL)	.
.	[16bb-JJ [gg [ee-	.
=85	=85	=85
8E-L EE-	16bb-]LL gg] ee-]	.
.	(16cc	.
8e-J B- G	16bb- gg ee-	.
.	16cccJJ	.
8BB-L BBB-	16bb-LL	.
.	16gg	.
8e-J B- G	16bb-	.
.	16eee-JJ)	.
!!LO:LB:g=original
=86	=86	=86
8AA-L< AAA-	16fffLL ff	<
.	(16aa-	.
8fJ e- c A-	16ccc	.
.	[16eee-JJ [ee-	.
8AAnL< AAAn	16eee-]LL ee-]	.
.	16dddJ dd	[
8f#J e- c An	8cccJ cc)	.
=87	=87	=87
*	*^	*
8BB-L BBB-	4ryy	(16cccLL cc	.
.	.	16ee-	<
8gJ e- B-	.	16gg)	.
.	.	[16bb-JJ [een b-	.
8CL CC	(16bb-LL]	4ee] b-	.
.	16aa-J	.	.
8enJ c B-	8ggJ)	.	[
=88	=88	=88	=88
8FL FF	(16ggLL ee-X	8.anL	f
.	16cc	.	.
8e-XJ c An F	16dd	.	.
.	[16ee-JJ)	[16aJk	.
8CL CC	16ee-LL]	8a]L	.
.	16ee-J	.	.
8BB-J BBB-	8ffJ dd	8a-J	.
*	*v	*v	*
=89	=89	=89
*>E1	*>E1	*>E1
8E-L EE-	[4ee- [b- [g	.
8GJ GG	.	.
8B-L BB-	8ee-]L b-] g]	.
(16GL GG	(16b-L	.
16G-JJ GG-)	16bnJJ)	.
=90:|!	=90:|!	=90:|!
*>E2	*>E2	*>E2
8E-L EE-	4ee- b- g	.
8BB-	.	.
8EE-J	8eee- bb- gg ee-	.
==	==	==
*-	*-	*-
!!!RDF**kern: > = above
!!!RDF**kern: < = below
!!!URL-vhv: https://verovio.humdrum.org/?file=joplin/searchlight.krn
!!!URL-pdf-original: https://github.com/craigsapp/joplin/blob/master/reference-edition/searchlight.pdf
!!!PDT: 1907
!!!PUB: Jos. W. Stern & Co.
!!!ENC: Craig Stuart Sapp
!!!END: 2004/11/28
!!!EED: Craig Stuart Sapp
!!!EEV: 2021/07/01
!!!YEC: 2021 Craig Stuart Sapp
!!!URL: https://github.com/craigsapp/joplin
!!!YEM: Licence: (CC BY-NC-SA 4.0) https://creativecommons.org/licenses/by-nc-sa/4.0
!!!YER: 2021
